X:1
T:Title
%%score { ( 1 4 ) | ( 2 3 ) }
L:1/8
M:4/4
K:G
V:1 treble nm="Grand Piano"
V:4 treble 
V:2 treble 
V:3 treble 
V:1
 z4 z2[Q:1/4=108] D2 |[M:3/4] B2 B2 B2 | [Gd]4 [B,G][B,G] | [EGA]2 [EGA]2 [DFA]2 | [DGB]4 [G,DG]2 | %5
 [G,EG]2 [Ge]2 [Ge]2 | e2 d2 B2 | G2 F2 G2 | B2 [DFA]4 | [EGA]>[EGA] [EGA]4 | %10
 [FA]>[FA] [FA]2 [Ad][Ad] | ^c2 B2 c2 | [Fd]4 G2 | [EG]2 [Ge]2 [Ge]2 | [B,Ge]2 [B,Gd]2 [G,DG]2 | %15
 [B,DG]2 [DB]2 [CDA]2 | [CDA]2 [B,DG]4 | [FA]3 G [DF]G | [FA]4 [FA]2 | [GB]3 A [GB]c | [FA]4 z2 | %21
 [FA]3 G [DF]G | [FA]4 [GB]2 | [Ac]d ed [Ac]B | [FA]4 z2 | B4 [FA]2 | [FA]2 [EG]4 | [EG]4 [CE]2 | %28
 [CE]2 D2 z2 | [B,G]3 A [B,G]A | [GB]A Bc .[Bd]2 | [Bd]B .[GB]2 [CA]2 | [B,G]4 z2 | %33
 [B,EG]4 [B,EG]2 | .[B,FA]2 .[B,FA]2 z2 | [B,EG]4 [B,EG]2 | [B,^DF]6 | [B,EG]4 [B,EG]2 | %38
 .[CEA]2 .[CEA]2 z2 | [A,DG]4 [CDF]2 | [B,DG]6 | [GB]4 [Ac]2 | [Bd]4 [Bd]2 | [GB]4 [Ac]2 | [Bd]6 | %45
 [ce]4 [ce]2 | [Bd]4 [GB]2 | [Ac]4 [GB]2 | [FA]4 z2 | F2- [Fd]2 [DFA]2 | [DFA]2 F2 F2 | %51
 F2 G2[K:bass] [G,^CE]2 |[M:2/4] [F,D]4 |[M:1/4][K:treble] D2 |[M:3/4] B2 B2 B2 | %55
 [Gd]4 [B,G][B,G] | [EGA]2 [EGA]2 [DFA]2 | [DGB]4 [G,DG]2 | [G,EG]2 [Ge]2 [Ge]2 | e2 d2 B2 | %60
 G2 F2 G2 | B2 [DFA]4 | [EGA]>[EGA] [EGA]4 | [FA]>[FA] [FA]2 [Ad][Ad] | ^c2 B2 c2 | [Fd]4 G2 | %66
 [EG]2 [Ge]2 [Ge]2 | [B,Ge]2 [B,Gd]2 [G,DG]2 | [B,DG]2 [DB]2 [CDA]2 | %69
[M:7/4] [CDA]2 [B,DG]4 z2 z2 z4 |] %70
V:2
 z4 z2 D,2 |[M:3/4] [G,B,G]2 [G,B,G]2 [G,B,G]2 | [B,,G,]4 E,E, | C,2 C,2 D,2 | G,4 B,,2 | %5
 C,2 [C,C]2 [C,C]2 | [G,,B,G]2 [G,,B,G]2 [G,B,D]2 | [E,A,^C]2 [E,A,C]2 [E,A,C]2 | [D,G,D]2 D,4 | %9
 ^C,>C, C,4 | [D,D]>[D,D] [D,D]2 [F,D][F,D] | [A,EG]2 [A,DG]2 [A,G]2 | [D,A,]4 [G,B,]2 | %13
 [C,C]2 [C,C]2 [C,C]2 | G,,2 G,,2 B,,2 | D,2 D,2 D,2 | G,,2 G,,4 | z2 z E z E | D,4 D,2 | %19
 z2 z[K:treble] F z A | D,4 z2 | z2 z E z E | D,4 D,2 | z[K:treble] B cB z G | D,4 z2 | %25
 z2 G2 G,,2 | C,2 C,4 | C,4 E,2 | z2 B,2 z2 | z2 z D z D | z[K:treble] D GA z g | %31
 z G[K:bass] z D D,2 | G,,4 z2 | E,4 E,2 | .E,2 .D,2 z2 | E,4 E,2 | B,,6 | E,4 E,2 | .C,2 .C,2 z2 | %39
 D,4 D,2 | G,,6 | G,4 G,2 | G,4 G,2 | G,4 G,2 | G,6 | G,4 G,2 | G,4 G,2 | F,4 G,2 | D,4 z2 | %49
 z2 A,2 D,2 | z2 [A,D]2 [F,A,D]2 | D2 E2 A,,2 |[M:2/4] D,4 |[M:1/4] D,2 | %54
[M:3/4][K:treble] [G,B,G]2 [G,B,G]2 [G,B,G]2 | [B,,G,]4 E,E, | C,2 C,2 D,2 | G,4 B,,2 | %58
 C,2 [C,C]2 [C,C]2 | [G,,B,G]2 [G,,B,G]2 [G,B,D]2 | [E,A,^C]2 [E,A,C]2 [E,A,C]2 | [D,G,D]2 D,4 | %62
 ^C,>C, C,4 | [D,D]>[D,D] [D,D]2 [F,D][F,D] | [A,EG]2 [A,DG]2 [A,G]2 | [D,A,]4 [G,B,]2 | %66
 [C,C]2 [C,C]2 [C,C]2 | G,,2 G,,2 B,,2 | D,2 D,2 D,2 |[M:7/4] G,,2 G,,4 z2 z2 z4 |] %70
V:3
 x8 |[M:3/4] x6 | x6 | x6 | x6 | x6 | x6 | x6 | x6 | x6 | x6 | x6 | x6 | x6 | x6 | x6 | x6 | %17
 D,4 D,2 | x6 | D,4[K:treble] D,2 | x6 | D,4 D,2 | x6 | D,4[K:treble] D,2 | x6 | G,,4 z2 | x6 | %27
 x6 | G,4 z2 | G,4 G,2 | G,4[K:treble] G,2 | D2[K:bass] D,2 z2 | x6 | x6 | x6 | x6 | x6 | x6 | x6 | %39
 x6 | x6 | x6 | x6 | x6 | x6 | x6 | x6 | x6 | x6 | D,4 z2 | [A,,D,]4 z2 | A,4 z2 |[M:2/4] x4 | %53
[M:1/4] x2 |[M:3/4][K:treble] x6 | x6 | x6 | x6 | x6 | x6 | x6 | x6 | x6 | x6 | x6 | x6 | x6 | x6 | %68
 x6 |[M:7/4] x14 |] %70
V:4
 x8 |[M:3/4] x6 | x6 | x6 | x6 | x6 | x6 | x6 | x6 | x6 | x6 | x6 | x6 | x6 | x6 | x6 | x6 | x6 | %18
 x6 | x6 | x6 | x6 | x6 | x6 | x6 | D2 z2 z2 | x6 | x6 | x6 | x6 | x6 | x6 | x6 | x6 | x6 | x6 | %36
 x6 | x6 | x6 | x6 | x6 | x6 | x6 | x6 | x6 | x6 | x6 | x6 | x6 | [DA]2 z2 z2 | x6 | %51
 x4[K:bass] x2 |[M:2/4] x4 |[M:1/4][K:treble] x2 |[M:3/4] x6 | x6 | x6 | x6 | x6 | x6 | x6 | x6 | %62
 x6 | x6 | x6 | x6 | x6 | x6 | x6 |[M:7/4] x14 |] %70

